X:1
T:Title
%%score 1 2 3 4
L:1/8
M:3/2
K:C
V:1 treble nm="Part_1"
V:2 treble nm="Part_2"
V:3 treble-8 nm="Part_3"
V:4 treble-8 nm="Part_4"
V:1
 A4 A4 A4 | _B2 A4 G2 A2 F2 | E4 z4 G4 | F2 G2 A4 F4 | G4 z4 A4 | _B4 A4 G4 | A4 A4 E4 | C4 E4 F4 | %8
 D8 E4 | F2 E2 D4 C4 | D12 | z12 | z12 | z12 | z12 | z12 | z12 | z12 | z12 | z12 | z12 | z12 | %22
 A4 _B2 A2 G2 F2 | F4 z4 D4 | C4 C4 E4 | F4 F4 E4 | F4 E4 D4 | E4 E4 z4 | A4 B2 G4 F2 | %29
 A2 G2 F4 E4 | D4 z2 G2 A4 | F4 z2 B2 A4 | G4 z2 G2 A4 | F4 z2 E2 F4 | E4 z2 B,2 D4 | C12 | %36
 F2 E2 C2 D2 C2 B,2 | D12 | z12 | F4 E4 G4 | A4 A4 G4 | E4 C4 D4 | B,2 C2 D4 C4 | D12 | z4 z4 B,4 | %45
 C4 C4 D4 | E4 A2 G2 F2 E2 | D4 z2 F4 D2 | E4 z2 A4 F2 | G4 z2 D4 C2 | F4 z2 C4 B,2 | D4 z2 G4 A2 | %52
 B4 z2 G4 E2 | F2 G2 A4 G4 | A12 | z12 | B12 | A4 z4 A4 | B4 G4 D4 | E4 G2 F2 E2 D2 | C2 D2 E4 C4 | %61
 D12 | D4 z2 D4 E2- | E2 F2 G4 z2 A2- | A2 F4 E2 D4 | z2 F4 G4 F2 | A4 z2 B4 A2- | %67
 A2 F2 G4 z2 A,2- | A,2 B,4 D2 C2 B,2 | D12- | !fermata!D12 | !fermata!D4 !fermata!E8 | F12- | %73
 !fermata!F12 | !fermata!E4 !fermata!D8 | C12- | C12 | D12 |] %78
V:2
 z12 | z12 | z12 | z12 | z12 | z12 | z12 | z12 | z12 | z12 | z12 | A12 | _B2 A4 G2 A2 F2 | %13
 E4 z4 G4 | F2 G2 A4 F4 | G4 z4 A4 | _B4 A4 G4 | A4 A4 E4 | C4 E4 F4 | D8 E4 | F2 E2 D4 ^C4 | D12 | %22
 F2 E4 D2 E2 C2 | D4 D2 E2 F2 G2 | E4 z4 G4 | A8 B4 | B2 A4 G4 F2 | A4 B2 A2 G2 F2 | E2 D2 C4 D4 | %29
 E4 z4 A4 | F4 E4 z2 F2 | A4 G4 z2 F2 | E4 D4 z2 E2 | A4 G4 z2 B2 | A4 D4 z2 F2 | G12 | G4 z4 A4 | %37
 B6 G2 A2 B2 | G2 A2 B4 G4 | A4 A4 z4 | F2 E4 C2 D4 | C4 z4 G4 | G2 B4 A4 G2 | B2 A4 G2 A2 F2 | %44
 E4 F2 E4 D2 | F12 | z4 z4 A4 | z2 B4 A2 A4 | z2 A4 F2 E4 | z2 D4 F2 G4 | z2 A4 F2 E4 | %51
 z2 G4 E2 D4 | z2 E4 D2 C2 B,2 | A,4 D2 C4 B,2 | D4 z4 z4 | A4 B4 A4 | G4 G2 D4 E2 | C4 C4 E4 | %58
 G2 A2 B4 A4 | B12 | z12 | A4 A4 F2 G2 | A4 F4 A2 G2 | z4 D4 E4 | E2 D2 z4 G4 | D4 F2 E2 z4 | %66
 F4 E4 D2 F2 | F4 E4 D4 | F2 G2 A4 G4 | A12- | !fermata!A12 | !fermata!A4 !fermata!B8 | A12- | %73
 !fermata!A12 | !fermata!G4 !fermata!F8 | G12- | !fermata!G12 | A12 |] %78
V:3
 d12- | d12 | c12 | d12 | G8 d4 | d4 c4 B4 | A12 | A4 A4 G4 | F4 F4 E4 | D4 F4 E4 | D12 | d12- | %12
 d12 | c12 | d12 | G8 d4 | d4 c4 B4 | A12 | A4 A4 G4 | F4 F4 E4 | D4 F4 E4 | D12 | A12 | D12 | %24
 A8 G4 | d8 G4 | d4 c4 B4 | A12 | A4 A4 B4 | A12 | z2 D2 E4 D4 | z2 F2 G4 A4 | z2 c2 B4 A4 | %33
 z2 A2 c4 d4 | z2 A2 G4 F4 | E12 | E4 E4 A4 | G12- | G12 | d4 c4 B4 | A4 A4 D4 | A4 A4 G4 | %42
 G4 F4 E4 | D12 | G12 | F12 | c12 | d12 | A12 | B12 | A12 | G12- | G12 | F4 F4 E4 | D12 | d12 | %56
 G12 | A12 | G4 G4 F4 | E12- | E12 | D4 D4 D4 | z2 D4 F4 G2 | A4 z2 G4 c2- | c2 d2 A4 z2 G2- | %65
 G2 d4 c2 B4 | z2 A4 G4 F2 | A4 z2 G4 F2- | F2 E2 D4 E4 | D12- | !fermata!D12 | %71
 !fermata!F4 !fermata!G8 | A12- | !fermata!A12 | !fermata!E4 !fermata!F8 | E12- | !fermata!E12 | %77
 D12 |] %78
V:4
 D12- | D12 | A4 F4 E4 | D12 | C4 E4 D4 | G4 A4 E4 | e4 e4 c4 | e2 d2 c4 B4 | A8 ^G4 | A4 D4 G4 | %10
 A12 | D12- | D12 | A4 F4 E4 | D12 | C4 E4 D4 | G4 A4 E4 | e4 e4 c4 | e2 d2 c4 B4 | A8 ^G4 | %20
 A4 D4 G4 | A12 | c12 | A12 | z4 F4 E4 | D8 z4 | D4 E4 G4 | c8 e4 | f4 e4 d4 | c2 e4 c4 B2 | %30
 A4 c4 d4 | D4 E4 F4 | E4 G4 z4 | A4 E4 D4 | c4 B4 A4 | G12 | z12 | B12 | d12 | D4 A4 d4 | %40
 c4 A4 A4 | A4 c4 B4 | z12 | A8 z4 | E12 | A8 D4 | A12 | D12 | c12 | d8 G4 | c8 A4 | B12- | B8 z4 | %53
 d2 c2 A2 B4 G2 | F4 A8 | D12 | d8 B4 | e8 c4 | d2 B4 c4 A2 | ^G12 | G4 B2 A2 B2 G2 | A12 | %62
 D4 A2 D2 z4 | c4 B4 B2 A2 | z4 c4 B4 | G2 D2 z4 d4 | c4 A2 E2 z4 | D4 E4 G2 D2 | z4 F2 A4 G2 | %69
 A12- | !fermata!A12 | !fermata!A4 !fermata!E8 | c12- | !fermata!c12 | !fermata!B4 !fermata!A8 | %75
 G12- | !fermata!G12 | A12 |] %78

